korla/places/scalable/mail-mailbox.svg

<svg style="clip-rule:evenodd;fill-rule:evenodd;stroke-linecap:round;stroke-linejoin:round;stroke-miterlimit:1.5" version="1.1" viewBox="0 0 48 48" xmlns="http://www.w3.org/2000/svg" xmlns:serif="http://www.serif.com/">
 <g id="Top" transform="matrix(.0446625 0 0 -.0502166 1.08816 47.958)">
  <path d="m986.317 276.095-946.837 0.586v280.908c0 15.333 8.234 29.745 22.159 38.785 76.534 49.684 329.945 214.192 419.539 272.354 18.91 12.276 44.562 12.313 63.517 0.092 89.605-57.77 342.635-220.905 419.32-270.345 14.009-9.032 22.302-23.488 22.302-38.877v-283.503z" style="fill:url(#_Linear1)"/>
 </g>
 <g id="Top1" transform="matrix(.0446625 0 0 .0446625 1.08816 6.40695)" serif:id="Top">
  <path d="m537.72 568.322c-15.261 9.237-34.387 9.246-49.657 0.022-97.478-58.879-448.583-270.957-448.583-270.957v517.461c0 32.53 26.37 58.901 58.9 58.901h831.144c15.063 0 29.508-5.984 40.159-16.635 10.651-10.65 16.634-25.096 16.634-40.158v-520.155s-351.138 212.532-448.597 271.521z" style="fill:url(#_Linear2)"/>
 </g>
 <g transform="scale(.375)">
  <path d="m10.403 118.957c-1.332-2.396-1.379-4.837 1.396-6.279 8.306-4.316 41.294-21.852 50.048-26.507 1.338-0.711 2.943-0.709 4.279 7e-3 8.678 4.652 41.199 22.084 49.45 26.5 3.285 1.759 3.725 4.758 2.306 6.279" style="fill:none;stroke-width:1px;stroke:url(#_Linear3)"/>
 </g>
 <defs>
  <linearGradient id="_Linear1" x2="1" gradientTransform="matrix(3.76966e-14,-615.633,615.633,3.76966e-14,534.968,867.778)" gradientUnits="userSpaceOnUse">
   <stop style="stop-color:rgb(11,124,212)" offset="0"/>
   <stop style="stop-color:rgb(26,150,190)" offset="1"/>
  </linearGradient>
  <linearGradient id="_Linear2" x2="1" gradientTransform="matrix(3.76966e-14,-615.633,615.633,3.76966e-14,534.968,867.778)" gradientUnits="userSpaceOnUse">
   <stop style="stop-color:rgb(16,117,246)" offset="0"/>
   <stop style="stop-color:rgb(18,197,255)" offset="1"/>
  </linearGradient>
  <linearGradient id="_Linear3" x2="1" gradientTransform="matrix(2.10377e-15,34.3572,-34.3572,2.10377e-15,64.0825,86.7914)" gradientUnits="userSpaceOnUse">
   <stop style="stop-color:rgb(170,210,255)" offset="0"/>
   <stop style="stop-color:rgb(16,121,246)" offset="1"/>
  </linearGradient>
 </defs>
</svg>

<?xml version="1.0" encoding="UTF-8" standalone="no"?>

<svg width="100%" height="100%" viewBox="0 0 128 128" version="1.1" xmlns="http://www.w3.org/2000/svg" xmlns:xlink="http://www.w3.org/1999/xlink" xml:space="preserve" xmlns:serif="http://www.serif.com/" style="fill-rule:evenodd;clip-rule:evenodd;stroke-linecap:round;stroke-linejoin:round;stroke-miterlimit:1.5;">
    <g id="Top" transform="matrix(0.1191,0,0,-0.133911,2.90175,127.888)">
        <path d="M986.317,276.095L39.48,276.681C39.48,276.681 39.48,485.203 39.48,557.589C39.48,572.922 47.714,587.334 61.639,596.374C138.173,646.058 391.584,810.566 481.178,868.728C500.088,881.004 525.74,881.041 544.695,868.82C634.3,811.05 887.33,647.915 964.015,598.475C978.024,589.443 986.317,574.987 986.317,559.598C986.317,486.681 986.317,276.095 986.317,276.095Z" style="fill:url(#_Linear1);"/>
    </g>
    <g id="Top1" serif:id="Top" transform="matrix(0.1191,0,0,0.1191,2.90175,17.0852)">
        <path d="M537.72,568.322C522.459,577.559 503.333,577.568 488.063,568.344C390.585,509.465 39.48,297.387 39.48,297.387C39.48,297.387 39.48,683.454 39.48,814.848C39.48,847.378 65.85,873.749 98.38,873.749C268.928,873.749 761.663,873.749 929.524,873.749C944.587,873.749 959.032,867.765 969.683,857.114C980.334,846.464 986.317,832.018 986.317,816.956C986.317,686.741 986.317,296.801 986.317,296.801C986.317,296.801 635.179,509.333 537.72,568.322Z" style="fill:url(#_Linear2);"/>
    </g>
    <path d="M10.403,118.957C9.071,116.561 9.024,114.12 11.799,112.678C20.105,108.362 53.093,90.826 61.847,86.171C63.185,85.46 64.79,85.462 66.126,86.178C74.804,90.83 107.325,108.262 115.576,112.678C118.861,114.437 119.301,117.436 117.882,118.957" style="fill:none;stroke:url(#_Linear3);stroke-width:1px;"/>
    <defs>
        <linearGradient id="_Linear1" x1="0" y1="0" x2="1" y2="0" gradientUnits="userSpaceOnUse" gradientTransform="matrix(3.76966e-14,-615.633,615.633,3.76966e-14,534.968,867.778)"><stop offset="0" style="stop-color:rgb(11,124,212);stop-opacity:1"/><stop offset="1" style="stop-color:rgb(26,150,190);stop-opacity:1"/></linearGradient>
        <linearGradient id="_Linear2" x1="0" y1="0" x2="1" y2="0" gradientUnits="userSpaceOnUse" gradientTransform="matrix(3.76966e-14,-615.633,615.633,3.76966e-14,534.968,867.778)"><stop offset="0" style="stop-color:rgb(16,117,246);stop-opacity:1"/><stop offset="1" style="stop-color:rgb(18,197,255);stop-opacity:1"/></linearGradient>
        <linearGradient id="_Linear3" x1="0" y1="0" x2="1" y2="0" gradientUnits="userSpaceOnUse" gradientTransform="matrix(2.10377e-15,34.3572,-34.3572,2.10377e-15,64.0825,86.7914)"><stop offset="0" style="stop-color:rgb(170,210,255);stop-opacity:1"/><stop offset="1" style="stop-color:rgb(16,121,246);stop-opacity:1"/></linearGradient>
    </defs>
</svg>
